!!!COA:	Josquin des Prez
!!!CDT:	~1450-1521/08/27
!!!OPR:	Missa D'ung aultre amer
!!!ONM:	5
!!!OTL:	Agnus Dei
!!!AGN:	Mass; Agnus Dei; Missa Brevis
!!!SCT:	NJE 7.3
!!!SCA:	New Josquin Edition 7.3
!!!voices:	4
!!!voices-OPR:	4
**kern	**kern	**kern	**kern
*staff4	*staff3	*staff2	*staff1
*Ivox	*Ivox	*Ivox	*Ivox
*I"Bassus	*I"Tenor	*I"Altus	*I"Superius
*I'B	*I'T	*I'A	*I'S
*clefF4	*clefGv2	*clefGv2	*clefG2
*>[A,B,C]	*>[A,B,C]	*>[A,B,C]	*>[A,B,C]
*>A	*>A	*>A	*>A
*k[b-]	*k[b-]	*k[b-]	*k[b-]
*M2/1	*M2/1	*M2/1	*M2/1
*met(C|)	*met(C|)	*met(C|)	*met(C|)
=1-	=1-	=1-	=1-
!!section: Agnus Dei I
!!!OMD: Agnus Dei I
0G	0G	0r	0r
=2	=2	=2	=2
1A	1F	0r	0r
[1B-	1G	.	.
=3	=3	=3	=3
2B-\]	0B-	0r	0r
4A\	.	.	.
4G\	.	.	.
1B-	.	.	.
=4	=4	=4	=4
2A\	0c	0r	0r
4G\	.	.	.
4F\	.	.	.
1E	.	.	.
=5	=5	=5	=5
[0D	1.d	[0d	0f
.	2c\	.	.
=6	=6	=6	=6
0D]	1B-	1d]	1f
.	1A	1d	1f
=7	=7	=7	=7
1r	1.G	0d	1g
1G	.	.	1g
.	4F/	.	.
.	4E/	.	.
=8	=8	=8	=8
1F	0D	0d	2a/
.	.	.	2.a/
1F	.	.	.
.	.	.	4g/
.	.	.	4f/
.	.	.	4e/
=9	=9	=9	=9
1G	1B-	1r	0d
1F	1A	1d	.
=10	=10	=10	=10
1G	1B-	1d	1r
1G	1G	1d	1B-
=11	=11	=11	=11
0D	2F/	1d	1A
.	1F	.	.
.	.	1d	1A
.	4E/	.	.
.	4F/	.	.
=12	=12	=12	=12
0r	1G	1B-	2G/
.	.	.	2d/
.	[1C	[1c	2e/
.	.	.	2f/
=13	=13	=13	=13
1r	1C]	1c]	2g/
.	.	.	2.G/
1GG	1G	1d	.
.	.	.	4A/
.	.	.	4B-/
.	.	.	4c/
=14	=14	=14	=14
1BB-	2F/	1r	1d
.	1G	.	.
1BB-	.	1d	2r
.	4F/	.	[2d/
.	4E/	.	.
=15	=15	=15	=15
1BB-	2F/	1d	4d/]
.	.	.	4e/
.	2D/	.	4f/
.	.	.	4g/
1AA	1C	[1e	1a
=16	=16	=16	=16
0GG	0G	2e\]	2r
.	.	2d\	1b-
.	.	1g	.
.	.	.	4a/
.	.	.	4g/
=17	=17	=17	=17
0D	1D	1f	2b-\
.	.	.	1a
.	1F	2e\	.
.	.	[2d\	4g/
.	.	.	4f/
=18	=18	=18	=18
1r	0E	2d\]	4g/
.	.	.	4f/
.	.	4c\	4e/
.	.	4B-\	4d/
1AA	.	4c\	2.c#i/
.	.	4B-\	.
.	.	4A/	.
.	.	4G/	4Bni/
=19	=19	=19	=19
1BB-	[0Dl	1F	1.d
1GG	.	1G	.
.	.	.	2e/
=20	=20	=20	=20
0Dl	0D]	0Al	0fl
!!LO:LB:i:g=z
=21||	=21||	=21||	=21||
*>B	*>B	*>B	*>B
*k[b-]	*k[b-]	*k[b-]	*k[b-]
*M2/1	*M2/1	*M2/1	*M2/1
*met(C|)	*met(C|)	*met(C|)	*met(C|)
!!section: Agnus Dei II
!!!OMD: Agnus Dei II
0r	0B-	0r	2.d/
.	.	.	4e/
.	.	.	2f/
.	.	.	[2g/
=22	=22	=22	=22
0r	1c	0r	4g/]
.	.	.	4f/
.	.	.	4e/
.	.	.	4d/
.	1c	.	1e
=23	=23	=23	=23
0BB-	0d	2.D/	1d
.	.	4E/	.
.	.	2F/	1r
.	.	[2G/	.
=24	=24	=24	=24
1C	0e	2G/]	0r
.	.	4A/	.
.	.	4B-\	.
1C	.	2.c\	.
.	.	4B-\	.
=25	=25	=25	=25
0D	1d	4A/	1.f
.	.	4G/	.
.	.	1B-	.
.	[1f	.	.
.	.	4A/	2g/
.	.	4G/	.
=26	=26	=26	=26
1D	1f]	0F	1a
1D	1B-	.	1d
=27	=27	=27	=27
1D	0A	1r	2d/
.	.	.	2.f/
1D	.	1f	.
.	.	.	4g/
.	.	.	2a/
=28	=28	=28	=28
1D	0B-	1.f	2d/
.	.	.	2.f/
[1BB-	.	.	.
.	.	.	4g/
.	.	2e\	[2b-\
=29	=29	=29	=29
1BB-]	1f	1d	2b-\]
.	.	.	2a/
1C	1e	1G	1g
=30	=30	=30	=30
0D	1f	2r	1f
.	.	2.d\	.
.	[1d	.	1r
.	.	4c\	.
.	.	4B-\	.
.	.	4A/	.
=31	=31	=31	=31
1r	1d]	2B-\	1f
.	.	2F/	.
1C	1e	1c	1g
=32	=32	=32	=32
1D	1f	2A/	1f
.	.	2.B-\	.
1E	1B-	.	[1g
.	.	4A/	.
.	.	4G/	.
.	.	4F/	.
=33	=33	=33	=33
2C/	0c	2G/	2g/]
1F	.	2F/	1a
.	.	[1A	.
4E\	.	.	4g/
4D\	.	.	4f/
=34	=34	=34	=34
[0Cl	[0cl	2A/]	[0el
.	.	2G/	.
.	.	2.A/	.
.	.	4G/	.
=35	=35	=35	=35
0C]	0c]	0Gl	0e]
!!LO:LB:i:g=z
=36||	=36||	=36||	=36||
*>C	*>C	*>C	*>C
*k[b-]	*k[b-]	*k[b-]	*k[b-]
*M2/1	*M2/1	*M2/1	*M2/1
*met(C|)	*met(C|)	*met(C|)	*met(C|)
!!section: Agnus Dei III
!!!OMD: Agnus Dei III
0r	0B-	0r	0d
=37	=37	=37	=37
0r	1G	0r	1d
.	1F	.	[1d
=38	=38	=38	=38
1G	0G	1r	1d]
[1B-	.	2r	1d
.	.	2d\	.
=39	=39	=39	=39
2B-\]	0D	2d\	1r
4A\	.	2d\	.
4G\	.	.	.
1A	.	2d\	1f
.	.	2d\	.
=40	=40	=40	=40
1.G	0E	1B-	1g
.	.	[1c	1g
4F\	.	.	.
4G\	.	.	.
=41	=41	=41	=41
4A\	0F	1c]	2.f/
4G\	.	.	.
4F\	.	.	.
4E\	.	.	4g/
1D	.	1d	2a/
.	.	.	4g/
.	.	.	4a/
=42	=42	=42	=42
2r	0G	1r	4b-\
.	.	.	4a/
2GG/	.	.	4g/
.	.	.	4f/
1C	.	1c	1e
=43	=43	=43	=43
2BB-/	1B-	1.d	1d
1D	.	.	.
.	1A	.	2.f/
[2F\	.	2c\	.
.	.	.	4e/
=44	=44	=44	=44
2F\]	0c	1A	4c/
.	.	.	4d/
2C/	.	.	4e/
.	.	.	4f/
2.E-i\	.	2.G/	2.g/
4D\	.	4A/	4f/
=45	=45	=45	=45
2.BB-/	1d	4B-\	2d/
.	.	4c\	.
.	.	2.d\	2f/
4AA/	.	.	.
2GG/	2B-\	.	2g/
.	.	4e\	.
2FF/	2c\	[2f\	2a/
=46	=46	=46	=46
4BB-/	2.d\	4f\]	4d/
4C/	.	4e\	4e/
4D\	.	2d\	4f/
4E\	4c\	.	4g/
2F\	2A/	2c\	2a/
2G\	[2G/	2B-\	[2b-\
=47	=47	=47	=47
2E-i\	2G/]	2.e-i\	4b-\]
.	.	.	4a/
2G\	2B-\	.	1g
.	.	4d\	.
1D	1A	2.d\	.
.	.	.	2f#i/
.	.	4c\	.
=48	=48	=48	=48
1.GG	[0Gl	4B-\	[0gl
.	.	4A/	.
.	.	2.G/	.
.	.	4F/	.
[2C/	.	4E-i/	.
.	.	4D/	.
=49	=49	=49	=49
2C/]	0G_	2C/	0g_
2BB-/	.	2D/	.
2.C/	.	1E-i	.
4BB-/	.	.	.
=50	=50	=50	=50
0GGl	0G]	0Dl	0g]
==	==	==	==
*-	*-	*-	*-
!!!RDF**kern: l=long note in original notation
!!!RDF**kern: i=editorial accidental
!!!RDF**kern: V=start of tuplet marker
!!!RDF**kern: Z=end of tuplet marker
!!!ENC:	Jesse Rodin; Victoria Chang 2012/02/27
!!!END:	2012/02/27/
!!!EED:	Jesse Rodin
!!!EEV:	2012/03/22/
!!attribution-level@Jos: 3 (tricky)
!!!ONB:	Translated from MusicXML and edited on 2012/03/22/ by Craig Sapp
!!muse2ps: T^@{OPR}^u^@{ONM}{. }@{OTL}^C^@{COA}?\n@{SCT}^i2I150v85,85,85,150Q16
